X: 25936
T: Maurice Lennon's Tribute To Larry Reynolds
R: reel
M: 4/4
K: Gmajor
|:G3B DGBD|GBDE D3E|DG G2 DGBD|G3A BGgf|
e2ge dG B/A/G|cBAG A2GA|B2AG EGGE|1 DGBA GEDB:|2 DGBA G3d||
|:e2ge d3B|cBAG A2GA|B/A/G dG eGdG|BAAG A2gf|
e3g d2 B/A/G|cBAG A2GA|B2AG EG G2|1 DGBA G3d:|2 DGBA GEDB||

